;Sliced by ideaMaker 3.6.1.4415, 2020-09-11 22:08:52 UTC+1000
;Dimension: 235.000 235.000 250.000 0.400
;Plate Shape: 0
;Extruder Offset #1: 25.000 0.000
;Filament Diameter #1: 1.750
;Filament Diameter #2: 1.750
;Filament Compensation #1: 85.00
;Filament Compensation #2: 90.00
;Filament Density #1: 1240.00
;Filament Density #2: 1240.00
;Bounding Box: 34.150 140.850 18.407 116.593 0.000 11.200
;Model Gap: 0.000
M221 T0 S85.00
M140 S70.00
M104 T0 S205.00
M109 T0 S205.00
T0
M190 S70.00
; Ender 3 Custom Start G-code
G92 E0 ; Reset Extruder
G28 ; Home all axes
G1 Z2.0 F3000 ; Move Z Axis up little to prevent scratching of Heat Bed
G1 X0.1 Y20 Z0.3 F5000.0 ; Move to start position
G1 X0.1 Y200.0 Z0.3 F1500.0 E15 ; Draw the first line
G1 X0.4 Y200.0 Z0.3 F5000.0 ; Move to side a little
G1 X0.4 Y20 Z0.3 F1500.0 E30 ; Draw the second line
G92 E0 ; Reset Extruder
G1 Z2.0 F3000 ; Move Z Axis up little to prevent scratching of Heat Bed
G1 X5 Y20 Z0.3 F5000.0 ; Move over to prevent blob squish
M1001
;LAYER:0
;Z:0.200
;HEIGHT:0.200
M106 S255
G4 P500
M106 S64
G1 F3000 E-5.0000
G0 F4200 X126.610 Y114.960
G0 F900 Z0.200
;TYPE:WALL-INNER
;WIDTH:0.440
G1 F1500 E0.0000
G1 F900 X48.390 Y114.960 E3.1479
G1 X48.390 Y92.210 E4.0635
G1 X57.210 Y92.210 E4.4185
G1 X57.210 Y81.790 E4.8378
G1 X48.390 Y81.790 E5.1928
G1 X48.390 Y52.210 E6.3832
G1 X57.210 Y52.210 E6.7382
G1 X57.210 Y41.790 E7.1575
G1 X48.390 Y41.790 E7.5125
G1 X48.390 Y20.040 E8.3878
G1 X126.610 Y20.049 E11.5358
G1 X126.610 Y41.790 E12.4107
G1 X117.790 Y41.790 E12.7657
G1 X117.790 Y52.210 E13.1850
G1 X126.610 Y52.210 E13.5400
G1 X126.610 Y81.790 E14.7304
G1 X117.790 Y81.790 E15.0854
G1 X117.790 Y92.210 E15.5047
G1 X126.610 Y92.210 E15.8597
G1 X126.610 Y114.460 E16.7551
G0 F900 X126.610 Y114.960
G1 F3000 E11.7551
G0 F4200 X126.729 Y115.400
;TYPE:WALL-OUTER
;WIDTH:0.440
G1 F1500 E16.7551
G1 F900 X48.271 Y115.400 E19.9127
G1 X48.136 Y115.374 E19.9182
G1 X48.041 Y115.310 E19.9228
G1 X47.970 Y115.203 E19.9280
G1 X47.950 Y115.090 E19.9326
G1 X47.950 Y91.770 E20.8711
G1 X56.770 Y91.770 E21.2261
G1 X56.770 Y82.230 E21.6100
G1 X47.950 Y82.230 E21.9650
G1 X47.950 Y51.770 E23.1908
G1 X56.770 Y51.770 E23.5458
G1 X56.770 Y42.230 E23.9297
G1 X47.950 Y42.230 E24.2847
G1 X47.950 Y19.910 E25.1829
G1 X48.003 Y19.735 E25.1903
G1 X48.085 Y19.653 E25.1950
G1 X48.201 Y19.605 E25.2000
G1 X48.260 Y19.600 E25.2024
G1 X126.808 Y19.609 E28.3635
G1 X126.955 Y19.683 E28.3702
G1 X127.015 Y19.766 E28.3743
G1 X127.050 Y19.910 E28.3802
G1 X127.050 Y42.230 E29.2785
G1 X118.230 Y42.230 E29.6335
G1 X118.230 Y51.770 E30.0174
G1 X127.050 Y51.770 E30.3724
G1 X127.050 Y82.230 E31.5982
G1 X118.230 Y82.230 E31.9532
G1 X118.230 Y91.770 E32.3371
G1 X127.050 Y91.770 E32.6921
G1 X127.050 Y115.082 E33.6303
G1 X127.049 Y115.083 E33.6303
G0 F900 X127.032 Y115.192
G0 F900 X126.998 Y115.265
G0 F900 X126.869 Y115.373
G0 F900 X126.729 Y115.400
G0 F4200 X126.500 Y114.872
;TYPE:SOLID-FILL
;WIDTH:0.440
G1 F900 X126.500 Y92.298 E34.5388
G0 F4200 X126.060 Y92.298
G1 F900 X126.060 Y114.872 E35.4473
G0 F4200 X125.620 Y114.872
G1 F900 X125.620 Y92.298 E36.3558
G0 F4200 X125.180 Y92.298
G1 F900 X125.180 Y114.872 E37.2643
G0 F4200 X124.740 Y114.872
G1 F900 X124.740 Y92.298 E38.1727
G0 F4200 X124.300 Y92.298
G1 F900 X124.300 Y114.872 E39.0812
G0 F4200 X123.860 Y114.872
G1 F900 X123.860 Y92.298 E39.9897
G0 F4200 X123.420 Y92.298
G1 F900 X123.420 Y114.872 E40.8982
G0 F4200 X122.980 Y114.872
G1 F900 X122.980 Y92.298 E41.8067
G0 F4200 X122.540 Y92.298
G1 F900 X122.540 Y114.872 E42.7152
G0 F4200 X122.100 Y114.872
G1 F900 X122.100 Y92.298 E43.6236
G0 F4200 X121.660 Y92.298
G1 F900 X121.660 Y114.872 E44.5321
G0 F4200 X121.220 Y114.872
G1 F900 X121.220 Y92.298 E45.4406
G0 F4200 X120.780 Y92.298
G1 F900 X120.780 Y114.872 E46.3491
G0 F4200 X120.340 Y114.872
G1 F900 X120.340 Y92.298 E47.2576
G0 F4200 X119.900 Y92.298
G1 F900 X119.900 Y114.872 E48.1661
G0 F4200 X119.460 Y114.872
G1 F900 X119.460 Y92.298 E49.0746
G0 F4200 X119.020 Y92.298
G1 F900 X119.020 Y114.872 E49.9830
G0 F4200 X118.580 Y114.872
G1 F900 X118.580 Y92.298 E50.8915
G0 F4200 X118.140 Y92.298
G1 F900 X118.140 Y114.872 E51.8000
G0 F4200 X117.700 Y114.872
G1 F900 X117.700 Y20.136 E55.6126
G0 F4200 X117.260 Y20.136
G1 F900 X117.260 Y114.872 E59.4253
G0 F4200 X116.820 Y114.872
G1 F900 X116.820 Y20.136 E63.2379
G0 F4200 X116.380 Y20.136
G1 F900 X116.380 Y114.872 E67.0505
G0 F4200 X115.940 Y114.872
G1 F900 X115.940 Y20.136 E70.8632
G0 F4200 X115.500 Y20.136
G1 F900 X115.500 Y114.872 E74.6758
G0 F4200 X115.060 Y114.872
G1 F900 X115.060 Y20.136 E78.4884
G0 F4200 X114.620 Y20.136
G1 F900 X114.620 Y114.872 E82.3010
G0 F4200 X114.180 Y114.872
G1 F900 X114.180 Y20.136 E86.1137
G0 F4200 X113.740 Y20.136
G1 F900 X113.740 Y114.872 E89.9263
G0 F4200 X113.300 Y114.872
G1 F900 X113.300 Y20.136 E93.7389
G0 F4200 X112.860 Y20.136
G1 F900 X112.860 Y114.872 E97.5516
G0 F4200 X112.420 Y114.872
G1 F900 X112.420 Y20.136 E101.3642
G0 F4200 X111.980 Y20.136
G1 F900 X111.980 Y114.872 E105.1768
G0 F4200 X111.540 Y114.872
G1 F900 X111.540 Y20.136 E108.9894
G0 F4200 X111.100 Y20.136
G1 F900 X111.100 Y114.872 E112.8021
G0 F4200 X110.660 Y114.872
G1 F900 X110.660 Y20.136 E116.6147
G0 F4200 X110.220 Y20.136
G1 F900 X110.220 Y114.872 E120.4273
G0 F4200 X109.780 Y114.872
G1 F900 X109.780 Y20.136 E124.2399
G0 F4200 X109.340 Y20.136
G1 F900 X109.340 Y114.872 E128.0526
G0 F4200 X108.900 Y114.872
G1 F900 X108.900 Y20.135 E131.8652
G0 F4200 X108.460 Y20.135
G1 F900 X108.460 Y114.872 E135.6779
G0 F4200 X108.020 Y114.872
G1 F900 X108.020 Y20.135 E139.4906
G0 F4200 X107.580 Y20.135
G1 F900 X107.580 Y114.872 E143.3032
G0 F4200 X107.140 Y114.872
G1 F900 X107.140 Y20.135 E147.1159
G0 F4200 X106.700 Y20.135
G1 F900 X106.700 Y114.872 E150.9286
G0 F4200 X106.260 Y114.872
G1 F900 X106.260 Y20.135 E154.7413
G0 F4200 X105.820 Y20.135
G1 F900 X105.820 Y114.872 E158.5539
G0 F4200 X105.380 Y114.872
G1 F900 X105.380 Y20.135 E162.3666
G0 F4200 X104.940 Y20.135
G1 F900 X104.940 Y114.872 E166.1793
G0 F4200 X104.500 Y114.872
G1 F900 X104.500 Y20.135 E169.9919
G0 F4200 X104.060 Y20.135
G1 F900 X104.060 Y114.872 E173.8046
G0 F4200 X103.620 Y114.872
G1 F900 X103.620 Y20.135 E177.6173
G0 F4200 X103.180 Y20.135
G1 F900 X103.180 Y114.872 E181.4299
G0 F4200 X102.740 Y114.872
G1 F900 X102.740 Y20.135 E185.2426
G0 F4200 X102.300 Y20.135
G1 F900 X102.300 Y114.872 E189.0553
G0 F4200 X101.860 Y114.872
G1 F900 X101.860 Y20.135 E192.8679
G0 F4200 X101.420 Y20.135
G1 F900 X101.420 Y114.872 E196.6806
G0 F4200 X100.980 Y114.872
G1 F900 X100.980 Y20.135 E200.4933
G0 F4200 X100.540 Y20.135
G1 F900 X100.540 Y114.872 E204.3059
G0 F4200 X100.100 Y114.872
G1 F900 X100.100 Y20.134 E208.1186
G0 F4200 X99.660 Y20.134
G1 F900 X99.660 Y114.872 E211.9314
G0 F4200 X99.220 Y114.872
G1 F900 X99.220 Y20.134 E215.7441
G0 F4200 X98.780 Y20.134
G1 F900 X98.780 Y114.872 E219.5568
G0 F4200 X98.340 Y114.872
G1 F900 X98.340 Y20.134 E223.3695
G0 F4200 X97.900 Y20.134
G1 F900 X97.900 Y114.872 E227.1822
G0 F4200 X97.460 Y114.872
G1 F900 X97.460 Y20.134 E230.9949
G0 F4200 X97.020 Y20.134
G1 F900 X97.020 Y114.872 E234.8076
G0 F4200 X96.580 Y114.872
G1 F900 X96.580 Y20.134 E238.6203
G0 F4200 X96.140 Y20.134
G1 F900 X96.140 Y114.872 E242.4330
G0 F4200 X95.700 Y114.872
G1 F900 X95.700 Y20.134 E246.2457
G0 F4200 X95.260 Y20.134
G1 F900 X95.260 Y114.872 E250.0584
G0 F4200 X94.820 Y114.872
G1 F900 X94.820 Y20.134 E253.8711
G0 F4200 X94.380 Y20.134
G1 F900 X94.380 Y114.872 E257.6839
G0 F4200 X93.940 Y114.872
G1 F900 X93.940 Y20.134 E261.4966
G0 F4200 X93.500 Y20.134
G1 F900 X93.500 Y114.872 E265.3093
G0 F4200 X93.060 Y114.872
G1 F900 X93.060 Y20.134 E269.1220
G0 F4200 X92.620 Y20.134
G1 F900 X92.620 Y114.872 E272.9347
G0 F4200 X92.180 Y114.872
G1 F900 X92.180 Y20.134 E276.7474
G0 F4200 X91.740 Y20.133
G1 F900 X91.740 Y114.872 E280.5601
G0 F4200 X91.300 Y114.872
G1 F900 X91.300 Y20.133 E284.3729
G0 F4200 X90.860 Y20.133
G1 F900 X90.860 Y114.872 E288.1856
G0 F4200 X90.420 Y114.872
G1 F900 X90.420 Y20.133 E291.9984
G0 F4200 X89.980 Y20.133
G1 F900 X89.980 Y114.872 E295.8111
G0 F4200 X89.540 Y114.872
G1 F900 X89.540 Y20.133 E299.6239
G0 F4200 X89.100 Y20.133
G1 F900 X89.100 Y114.872 E303.4366
G0 F4200 X88.660 Y114.872
G1 F900 X88.660 Y20.133 E307.2494
G0 F4200 X88.220 Y20.133
G1 F900 X88.220 Y114.872 E311.0621
G0 F4200 X87.780 Y114.872
G1 F900 X87.780 Y20.133 E314.8749
G0 F4200 X87.340 Y20.133
G1 F900 X87.340 Y114.872 E318.6876
G0 F4200 X86.900 Y114.872
G1 F900 X86.900 Y20.133 E322.5004
G0 F4200 X86.460 Y20.133
G1 F900 X86.460 Y114.872 E326.3131
G0 F4200 X86.020 Y114.872
G1 F900 X86.020 Y20.133 E330.1259
G0 F4200 X85.580 Y20.133
G1 F900 X85.580 Y114.872 E333.9386
G0 F4200 X85.140 Y114.872
G1 F900 X85.140 Y20.133 E337.7514
G0 F4200 X84.700 Y20.133
G1 F900 X84.700 Y114.872 E341.5641
G0 F4200 X84.260 Y114.872
G1 F900 X84.260 Y20.133 E345.3769
G0 F4200 X83.820 Y20.133
G1 F900 X83.820 Y114.872 E349.1896
G0 F4200 X83.380 Y114.872
G1 F900 X83.380 Y20.133 E353.0024
G0 F4200 X82.940 Y20.132
G1 F900 X82.940 Y114.872 E356.8152
G0 F4200 X82.500 Y114.872
G1 F900 X82.500 Y20.132 E360.6279
G0 F4200 X82.060 Y20.132
G1 F900 X82.060 Y114.872 E364.4407
G0 F4200 X81.620 Y114.872
G1 F900 X81.620 Y20.132 E368.2535
G0 F4200 X81.180 Y20.132
G1 F900 X81.180 Y114.872 E372.0663
G0 F4200 X80.740 Y114.872
G1 F900 X80.740 Y20.132 E375.8791
G0 F4200 X80.300 Y20.132
G1 F900 X80.300 Y114.872 E379.6919
G0 F4200 X79.860 Y114.872
G1 F900 X79.860 Y20.132 E383.5047
G0 F4200 X79.420 Y20.132
G1 F900 X79.420 Y114.872 E387.3175
G0 F4200 X78.980 Y114.872
G1 F900 X78.980 Y20.132 E391.1303
G0 F4200 X78.540 Y20.132
G1 F900 X78.540 Y114.872 E394.9430
G0 F4200 X78.100 Y114.872
G1 F900 X78.100 Y20.132 E398.7558
G0 F4200 X77.660 Y20.132
G1 F900 X77.660 Y114.872 E402.5686
G0 F4200 X77.220 Y114.872
G1 F900 X77.220 Y20.132 E406.3814
G0 F4200 X76.780 Y20.132
G1 F900 X76.780 Y114.872 E410.1942
G0 F4200 X76.340 Y114.872
G1 F900 X76.340 Y20.132 E414.0070
G0 F4200 X75.900 Y20.132
G1 F900 X75.900 Y114.872 E417.8198
G0 F4200 X75.460 Y114.872
G1 F900 X75.460 Y20.132 E421.6326
G0 F4200 X75.020 Y20.132
G1 F900 X75.020 Y114.872 E425.4454
G0 F4200 X74.580 Y114.872
G1 F900 X74.580 Y20.132 E429.2581
G0 F4200 X74.140 Y20.131
G1 F900 X74.140 Y114.872 E433.0710
G0 F4200 X73.700 Y114.872
G1 F900 X73.700 Y20.131 E436.8838
G0 F4200 X73.260 Y20.131
G1 F900 X73.260 Y114.872 E440.6966
G0 F4200 X72.820 Y114.872
G1 F900 X72.820 Y20.131 E444.5095
G0 F4200 X72.380 Y20.131
G1 F900 X72.380 Y114.872 E448.3223
G0 F4200 X71.940 Y114.872
G1 F900 X71.940 Y20.131 E452.1351
G0 F4200 X71.500 Y20.131
G1 F900 X71.500 Y114.872 E455.9480
G0 F4200 X71.060 Y114.872
G1 F900 X71.060 Y20.131 E459.7608
G0 F4200 X70.620 Y20.131
G1 F900 X70.620 Y114.872 E463.5736
G0 F4200 X70.180 Y114.872
G1 F900 X70.180 Y20.131 E467.3864
G0 F4200 X69.740 Y20.131
G1 F900 X69.740 Y114.872 E471.1993
G0 F4200 X69.300 Y114.872
G1 F900 X69.300 Y20.131 E475.0121
G0 F4200 X68.860 Y20.131
G1 F900 X68.860 Y114.872 E478.8249
G0 F4200 X68.420 Y114.872
G1 F900 X68.420 Y20.131 E482.6378
G0 F4200 X67.980 Y20.131
G1 F900 X67.980 Y114.872 E486.4506
G0 F4200 X67.540 Y114.872
G1 F900 X67.540 Y20.131 E490.2634
G0 F4200 X67.100 Y20.131
G1 F900 X67.100 Y114.872 E494.0762
G0 F4200 X66.660 Y114.872
G1 F900 X66.660 Y20.131 E497.8891
G0 F4200 X66.220 Y20.131
G1 F900 X66.220 Y114.872 E501.7019
G0 F4200 X65.780 Y114.872
G1 F900 X65.780 Y20.130 E505.5148
G0 F4200 X65.340 Y20.130
G1 F900 X65.340 Y114.872 E509.3276
G0 F4200 X64.900 Y114.872
G1 F900 X64.900 Y20.130 E513.1405
G0 F4200 X64.460 Y20.130
G1 F900 X64.460 Y114.872 E516.9534
G0 F4200 X64.020 Y114.872
G1 F900 X64.020 Y20.130 E520.7662
G0 F4200 X63.580 Y20.130
G1 F900 X63.580 Y114.872 E524.5791
G0 F4200 X63.140 Y114.872
G1 F900 X63.140 Y20.130 E528.3920
G0 F4200 X62.700 Y20.130
G1 F900 X62.700 Y114.872 E532.2049
G0 F4200 X62.260 Y114.872
G1 F900 X62.260 Y20.130 E536.0177
G0 F4200 X61.820 Y20.130
G1 F900 X61.820 Y114.872 E539.8306
G0 F4200 X61.380 Y114.872
G1 F900 X61.380 Y20.130 E543.6435
G0 F4200 X60.940 Y20.130
G1 F900 X60.940 Y114.872 E547.4563
G0 F4200 X60.500 Y114.872
G1 F900 X60.500 Y20.130 E551.2692
G0 F4200 X60.060 Y20.130
G1 F900 X60.060 Y114.872 E555.0821
G0 F4200 X59.620 Y114.872
G1 F900 X59.620 Y20.130 E558.8949
G0 F4200 X59.180 Y20.130
G1 F900 X59.180 Y114.872 E562.7078
G0 F4200 X58.740 Y114.872
G1 F900 X58.740 Y20.130 E566.5207
G0 F4200 X58.300 Y20.130
G1 F900 X58.300 Y114.872 E570.3335
G0 F4200 X57.860 Y114.872
G1 F900 X57.860 Y20.130 E574.1464
G0 F4200 X57.420 Y20.130
G1 F900 X57.420 Y114.872 E577.9593
G0 F4200 X56.980 Y114.872
G1 F900 X56.980 Y92.298 E578.8678
G0 F4200 X56.540 Y92.298
G1 F900 X56.540 Y114.872 E579.7763
G0 F4200 X56.100 Y114.872
G1 F900 X56.100 Y92.298 E580.6847
G0 F4200 X55.660 Y92.298
G1 F900 X55.660 Y114.872 E581.5932
G0 F4200 X55.220 Y114.872
G1 F900 X55.220 Y92.298 E582.5017
G0 F4200 X54.780 Y92.298
G1 F900 X54.780 Y114.872 E583.4102
G0 F4200 X54.340 Y114.872
G1 F900 X54.340 Y92.298 E584.3187
G0 F4200 X53.900 Y92.298
G1 F900 X53.900 Y114.872 E585.2272
G0 F4200 X53.460 Y114.872
G1 F900 X53.460 Y92.298 E586.1357
G0 F4200 X53.020 Y92.298
G1 F900 X53.020 Y114.872 E587.0441
G0 F4200 X52.580 Y114.872
G1 F900 X52.580 Y92.298 E587.9526
G0 F4200 X52.140 Y92.298
G1 F900 X52.140 Y114.872 E588.8611
G0 F4200 X51.700 Y114.872
G1 F900 X51.700 Y92.298 E589.7696
G0 F4200 X51.260 Y92.298
G1 F900 X51.260 Y114.872 E590.6781
G0 F4200 X50.820 Y114.872
G1 F900 X50.820 Y92.298 E591.5866
G0 F4200 X50.380 Y92.298
G1 F900 X50.380 Y114.872 E592.4951
G0 F4200 X49.940 Y114.872
G1 F900 X49.940 Y92.298 E593.4035
G0 F4200 X49.500 Y92.298
G1 F900 X49.500 Y114.872 E594.3120
G0 F4200 X49.060 Y114.872
G1 F900 X49.060 Y92.298 E595.2205
G0 F4200 X48.620 Y92.298
G1 F900 X48.620 Y114.872 E596.1290
G1 F3000 E591.1290
G1 F900 Z0.500
G0 F4200 X48.620 Y81.702
G1 F900 Z0.200
G1 F1500 E596.1290
G1 F900 X48.620 Y52.298 E597.3124
G0 F4200 X49.060 Y52.298
G1 F900 X49.060 Y81.702 E598.4957
G0 F4200 X49.500 Y81.702
G1 F900 X49.500 Y52.298 E599.6791
G0 F4200 X49.940 Y52.298
G1 F900 X49.940 Y81.702 E600.8624
G0 F4200 X50.380 Y81.702
G1 F900 X50.380 Y52.298 E602.0458
G0 F4200 X50.820 Y52.298
G1 F900 X50.820 Y81.702 E603.2291
G0 F4200 X51.260 Y81.702
G1 F900 X51.260 Y52.298 E604.4125
G0 F4200 X51.700 Y52.298
G1 F900 X51.700 Y81.702 E605.5958
G0 F4200 X52.140 Y81.702
G1 F900 X52.140 Y52.298 E606.7792
G0 F4200 X52.580 Y52.298
G1 F900 X52.580 Y81.702 E607.9626
G0 F4200 X53.020 Y81.702
G1 F900 X53.020 Y52.298 E609.1459
G0 F4200 X53.460 Y52.298
G1 F900 X53.460 Y81.702 E610.3293
G0 F4200 X53.900 Y81.702
G1 F900 X53.900 Y52.298 E611.5126
G0 F4200 X54.340 Y52.298
G1 F900 X54.340 Y81.702 E612.6960
G0 F4200 X54.780 Y81.702
G1 F900 X54.780 Y52.298 E613.8793
G0 F4200 X55.220 Y52.298
G1 F900 X55.220 Y81.702 E615.0627
G0 F4200 X55.660 Y81.702
G1 F900 X55.660 Y52.298 E616.2461
G0 F4200 X56.100 Y52.298
G1 F900 X56.100 Y81.702 E617.4294
G0 F4200 X56.540 Y81.702
G1 F900 X56.540 Y52.298 E618.6128
G0 F4200 X56.980 Y52.298
G1 F900 X56.980 Y81.702 E619.7961
G1 F3000 E614.7961
G1 F900 Z0.500
G0 F4200 X56.980 Y41.702
G1 F900 Z0.200
G1 F1500 E619.7961
G1 F900 X56.980 Y20.129 E620.6643
G0 F4200 X56.540 Y20.129
G1 F900 X56.540 Y41.702 E621.5325
G0 F4200 X56.100 Y41.702
G1 F900 X56.100 Y20.129 E622.4007
G0 F4200 X55.660 Y20.129
G1 F900 X55.660 Y41.702 E623.2689
G0 F4200 X55.220 Y41.702
G1 F900 X55.220 Y20.129 E624.1371
G0 F4200 X54.780 Y20.129
G1 F900 X54.780 Y41.702 E625.0053
G0 F4200 X54.340 Y41.702
G1 F900 X54.340 Y20.129 E625.8735
G0 F4200 X53.900 Y20.129
G1 F900 X53.900 Y41.702 E626.7417
G0 F4200 X53.460 Y41.702
G1 F900 X53.460 Y20.129 E627.6099
G0 F4200 X53.020 Y20.129
G1 F900 X53.020 Y41.702 E628.4781
G0 F4200 X52.580 Y41.702
G1 F900 X52.580 Y20.129 E629.3463
G0 F4200 X52.140 Y20.129
G1 F900 X52.140 Y41.702 E630.2145
G0 F4200 X51.700 Y41.702
G1 F900 X51.700 Y20.129 E631.0827
G0 F4200 X51.260 Y20.129
G1 F900 X51.260 Y41.702 E631.9509
G0 F4200 X50.820 Y41.702
G1 F900 X50.820 Y20.129 E632.8191
G0 F4200 X50.380 Y20.129
G1 F900 X50.380 Y41.702 E633.6873
G0 F4200 X49.940 Y41.702
G1 F900 X49.940 Y20.129 E634.5555
